public/about/icons/arrowSystemVert.svg

<svg width="9" height="494" viewBox="0 0 9 494" fill="none" xmlns="http://www.w3.org/2000/svg" preserveAspectRatio="none">
<path d="M1 488.5C0.723858 488.5 0.5 488.724 0.5 489C0.5 489.276 0.723858 489.5 1 489.5L1 488.5ZM9 489L4 486.113L4 491.887L9 489ZM1 489L1 489.5L4.5 489.5L4.5 489L4.5 488.5L1 488.5L1 489Z" fill="#7B7B7B"/>
<path d="M1 368.5C0.723858 368.5 0.5 368.724 0.5 369C0.5 369.276 0.723858 369.5 1 369.5L1 368.5ZM9 369L4 366.113L4 371.887L9 369ZM1 369L1 369.5L4.5 369.5L4.5 369L4.5 368.5L1 368.5L1 369Z" fill="#7B7B7B"/>
<path d="M1 248.5C0.723858 248.5 0.5 248.724 0.5 249C0.5 249.276 0.723858 249.5 1 249.5L1 248.5ZM9 249L4 246.113L4 251.887L9 249ZM1 249L1 249.5L4.5 249.5L4.5 249L4.5 248.5L1 248.5L1 249Z" fill="#7B7B7B"/>
<path d="M1 131.5C0.723858 131.5 0.5 131.724 0.5 132C0.5 132.276 0.723858 132.5 1 132.5L1 131.5ZM9 132L4 129.113L4 134.887L9 132ZM1 132L1 132.5L4.5 132.5L4.5 132L4.5 131.5L1 131.5L1 132Z" fill="#7B7B7B"/>
<path d="M1.5 1C1.5 0.723858 1.27614 0.5 1 0.5C0.723858 0.5 0.5 0.723858 0.5 1H1.5ZM1 1H0.5L0.5 491H1H1.5L1.5 1H1Z" fill="#7B7B7B"/>
</svg>

<svg width="9" height="494" viewBox="0 0 9 494" fill="none" xmlns="http://www.w3.org/2000/svg" preserveAspectRatio="none"><path d="M1 488.5a.5.5 0 0 0 0 1zm8 .5-5-2.887v5.774zm-8 0v.5h3.5v-1H1zm0-120.5a.5.5 0 0 0 0 1zm8 .5-5-2.887v5.774zm-8 0v.5h3.5v-1H1zm0-120.5a.5.5 0 0 0 0 1zm8 .5-5-2.887v5.774zm-8 0v.5h3.5v-1H1zm0-113.5c-.276-4-.5-3.776-.5-3.5a.5.5 0 0 0 .5.5v-1Zm8-3.5-5-2.887v5.774zm-8 0v.5h3.5v-1H1z" fill="#7B7B7B"/><path d="M1.5 1a.5.5 0 0 0-1 0zM1 1H.5v487h1V1z" fill="#7B7B7B"/></svg>
